X:7
T:I've seen as good as you muffed below the Covering
Z:Jack Campin <http://www.campin.me.uk/>
S:George Skene, NLS Adv. 5.2.21 (fiddle tunes part)
M:9/8
L:1/8
Q:3/8=120
K:G Dorian
G>AG B2g    ge/f/g|G>AG B2f    cAF|G>AG B2g    ge/f/g|f3 F>GA/B/ cAF:|
f2d  dB/c/d dB/c/d|f2d  dB/c/d cFc|f2d  dB/c/d dB/c/d|f3 F>GA/B/ cAF:|
